Numix/16/status/indicator-keyboard-Ph.svg

<?xml version="1.0" encoding="UTF-8" standalone="no"?>
<svg
   xmlns:dc="http://purl.org/dc/elements/1.1/"
   xmlns:cc="http://creativecommons.org/ns#"
   xmlns:rdf="http://www.w3.org/1999/02/22-rdf-syntax-ns#"
   xmlns:svg="http://www.w3.org/2000/svg"
   xmlns="http://www.w3.org/2000/svg"
   xmlns:sodipodi="http://sodipodi.sourceforge.net/DTD/sodipodi-0.dtd"
   xmlns:inkscape="http://www.inkscape.org/namespaces/inkscape"
   viewBox="0 0 16 16"
   id="svg2"
   version="1.1"
   inkscape:version="0.91 r13725"
   sodipodi:docname="indicator-keyboard-Ph.svg">
  <metadata
     id="metadata13">
    <rdf:RDF>
      <cc:Work
         rdf:about="">
        <dc:format>image/svg+xml</dc:format>
        <dc:type
           rdf:resource="http://purl.org/dc/dcmitype/StillImage" />
      </cc:Work>
    </rdf:RDF>
  </metadata>
  <defs
     id="defs11" />
  <sodipodi:namedview
     pagecolor="#ffffff"
     bordercolor="#666666"
     borderopacity="1"
     objecttolerance="10"
     gridtolerance="10"
     guidetolerance="10"
     inkscape:pageopacity="0"
     inkscape:pageshadow="2"
     inkscape:window-width="640"
     inkscape:window-height="480"
     id="namedview9"
     showgrid="false"
     inkscape:zoom="14.75"
     inkscape:cx="8"
     inkscape:cy="8"
     inkscape:window-x="65"
     inkscape:window-y="24"
     inkscape:window-maximized="0"
     inkscape:current-layer="svg2" />
  <path
     style="fill:#ececec;fill-opacity:1"
     d="M 1.5996094 0 C 0.71320937 2.9605947e-16 0 0.71320937 0 1.5996094 L 0 14.400391 C 2.9605947e-16 15.286791 0.71320937 16 1.5996094 16 L 14.400391 16 C 15.286791 16 16 15.286791 16 14.400391 L 16 1.5996094 C 16 0.71320937 15.286791 0 14.400391 0 L 1.5996094 0 z M 9.4160156 4.5078125 L 9.4160156 6.9746094 C 9.6080156 6.9026094 9.8039529 6.8485 10.001953 6.8125 C 10.199953 6.7705 10.397703 6.7480469 10.595703 6.7480469 C 10.955703 6.7480469 11.256094 6.8003438 11.496094 6.9023438 C 11.736094 7.0043438 11.928266 7.15175 12.072266 7.34375 C 12.216266 7.52975 12.315141 7.7535781 12.369141 8.0175781 C 12.429141 8.2815781 12.458984 8.572625 12.458984 8.890625 L 12.458984 11.492188 L 11.873047 11.492188 L 11.873047 9.0800781 C 11.873047 8.7500781 11.848781 8.4701875 11.800781 8.2421875 C 11.758781 8.0141875 11.684172 7.8295469 11.576172 7.6855469 C 11.474172 7.5415469 11.336109 7.4389063 11.162109 7.3789062 C 10.988109 7.3129063 10.769859 7.2792969 10.505859 7.2792969 C 10.403859 7.2792969 10.291875 7.2886406 10.171875 7.3066406 C 10.057875 7.3246406 9.9496565 7.3451406 9.8476562 7.3691406 C 9.7456563 7.3871406 9.6543125 7.4095938 9.5703125 7.4335938 C 9.4923125 7.4575938 9.4400156 7.4743281 9.4160156 7.4863281 L 9.4160156 11.492188 L 8.8320312 11.492188 L 8.8320312 4.6152344 L 9.4160156 4.5078125 z M 5.1171875 5.2011719 C 5.9991875 5.2011719 6.6558906 5.3690781 7.0878906 5.7050781 C 7.5198906 6.0410781 7.7363281 6.5187188 7.7363281 7.1367188 C 7.7363281 7.4907187 7.672875 7.7929219 7.546875 8.0449219 C 7.420875 8.2909219 7.2398594 8.4924375 7.0058594 8.6484375 C 6.7718594 8.7984375 6.4845781 8.9084687 6.1425781 8.9804688 C 5.8065781 9.0464687 5.426 9.0800781 5 9.0800781 L 4.1542969 9.0800781 L 4.1542969 11.492188 L 3.5410156 11.492188 L 3.5410156 5.3710938 C 3.7570156 5.3110937 4.008875 5.2700938 4.296875 5.2460938 C 4.590875 5.2160937 4.8651875 5.2011719 5.1171875 5.2011719 z M 5.1425781 5.7324219 C 4.9145781 5.7324219 4.7205937 5.7417656 4.5585938 5.7597656 C 4.4025937 5.7717656 4.2682969 5.7829219 4.1542969 5.7949219 L 4.1542969 8.5488281 L 4.9277344 8.5488281 C 5.2577344 8.5488281 5.5543594 8.5301406 5.8183594 8.4941406 C 6.0883594 8.4521406 6.3159531 8.3812969 6.5019531 8.2792969 C 6.6939531 8.1712969 6.8413594 8.0238906 6.9433594 7.8378906 C 7.0453594 7.6518906 7.0957031 7.4149531 7.0957031 7.1269531 C 7.0957031 6.8509531 7.0397812 6.6233594 6.9257812 6.4433594 C 6.8177812 6.2633594 6.670375 6.1215313 6.484375 6.0195312 C 6.304375 5.9115313 6.0972812 5.8369219 5.8632812 5.7949219 C 5.6292813 5.7529219 5.3885781 5.7324219 5.1425781 5.7324219 z "
     id="path4" />
</svg>

<svg xmlns="http://www.w3.org/2000/svg" viewBox="0 0 16 16">
 <path d="m 1.6 0 c -0.886 0 -1.6 0.713 -1.6 1.6 l 0 12.801 c 0 0.886 0.713 1.6 1.6 1.6 l 12.801 0 c 0.886 0 1.6 -0.713 1.6 -1.6 l 0 -12.801 c 0 -0.886 -0.713 -1.6 -1.6 -1.6 l -12.801 0 z m 7.816 4.508 l 0 2.467 c 0.192 -0.072 0.388 -0.126 0.586 -0.162 c 0.198 -0.042 0.396 -0.064 0.594 -0.064 c 0.36 0 0.66 0.052 0.9 0.154 c 0.24 0.102 0.432 0.249 0.576 0.441 c 0.144 0.186 0.243 0.41 0.297 0.674 c 0.06 0.264 0.09 0.555 0.09 0.873 l 0 2.602 l -0.586 0 l 0 -2.412 c 0 -0.33 -0.024 -0.61 -0.072 -0.838 c -0.042 -0.228 -0.117 -0.413 -0.225 -0.557 c -0.102 -0.144 -0.24 -0.247 -0.414 -0.307 c -0.174 -0.066 -0.392 -0.1 -0.656 -0.1 c -0.102 0 -0.214 0.009 -0.334 0.027 c -0.114 0.018 -0.222 0.038 -0.324 0.063 c -0.102 0.018 -0.193 0.04 -0.277 0.064 c -0.078 0.024 -0.13 0.041 -0.154 0.053 l 0 4.01 l -0.584 0 l 0 -6.877 l 0.584 -0.107 z m -4.299 0.693 c 0.882 0 1.539 0.168 1.971 0.504 c 0.432 0.336 0.648 0.814 0.648 1.432 c 0 0.354 -0.063 0.656 -0.189 0.908 c -0.126 0.246 -0.307 0.448 -0.541 0.604 c -0.234 0.15 -0.521 0.26 -0.863 0.332 c -0.336 0.066 -0.717 0.1 -1.143 0.1 l -0.846 0 l 0 2.412 l -0.613 0 l 0 -6.121 c 0.216 -0.06 0.468 -0.101 0.756 -0.125 c 0.294 -0.03 0.568 -0.045 0.82 -0.045 z m 0.025 0.531 c -0.228 0 -0.422 0.009 -0.584 0.027 c -0.156 0.012 -0.29 0.023 -0.404 0.035 l 0 2.754 l 0.773 0 c 0.33 0 0.627 -0.019 0.891 -0.055 c 0.27 -0.042 0.498 -0.113 0.684 -0.215 c 0.192 -0.108 0.339 -0.255 0.441 -0.441 c 0.102 -0.186 0.152 -0.423 0.152 -0.711 c 0 -0.276 -0.056 -0.504 -0.17 -0.684 c -0.108 -0.18 -0.255 -0.322 -0.441 -0.424 c -0.18 -0.108 -0.387 -0.183 -0.621 -0.225 c -0.234 -0.042 -0.475 -0.063 -0.721 -0.063 z" style="fill:#ececec;fill-opacity:1"/>
</svg>
